src/status/symbolic/media-playlist-repeat-symbolic-rtl.svg

<svg width="16" height="16" version="1.1" xmlns="http://www.w3.org/2000/svg">
 <g color="#000000" fill="#363636">
  <path d="m3.994 2c-1.258 0.015-2.179-0.03-2.931 0.385a1.88 1.88 0 0 0-0.838 0.998c-0.165 0.437-0.225 0.96-0.225 1.617v6c0 0.658 0.06 1.179 0.225 1.617 0.164 0.439 0.461 0.79 0.838 0.998 0.752 0.416 1.673 0.37 2.931 0.385h8.012c1.258-0.015 2.179 0.03 2.932-0.385a1.88 1.88 0 0 0 0.838-0.998c0.164-0.438 0.224-0.96 0.224-1.617v-6c0-0.658-0.06-1.179-0.225-1.617a1.88 1.88 0 0 0-0.837-0.998c-0.753-0.416-1.674-0.37-2.932-0.385h-2.506v1h2.5c1.259 0.015 2.09 0.06 2.455 0.262 0.184 0.1 0.287 0.212 0.385 0.472 0.097 0.26 0.16 0.674 0.16 1.266v6c0 0.592-0.063 1.006-0.16 1.266-0.098 0.26-0.201 0.371-0.385 0.472-0.366 0.202-1.196 0.247-2.455 0.262h-8c-1.258-0.015-2.087-0.06-2.453-0.262-0.183-0.1-0.29-0.212-0.387-0.472s-0.16-0.674-0.16-1.266v-6c0-0.592 0.063-1.006 0.16-1.266 0.098-0.26 0.204-0.371 0.387-0.472 0.366-0.202 1.195-0.247 2.453-0.262h1v-1h-1.002z" font-family="sans-serif" font-weight="400" overflow="visible" style="font-feature-settings:normal;font-variant-alternates:normal;font-variant-caps:normal;font-variant-ligatures:normal;font-variant-numeric:normal;font-variant-position:normal;isolation:auto;mix-blend-mode:normal;shape-padding:0;text-decoration-color:#000000;text-decoration-line:none;text-decoration-style:solid;text-indent:0;text-orientation:mixed;text-transform:none"/>
  <path d="M 11,0 10.999,5 A 36.973,36.973 0 0 1 8.676,3.834 44.09,44.09 0 0 1 6.417,2.5 51.555,51.555 0 0 1 8.677,1.18 42.09,42.09 0 0 1 11,0 Z" overflow="visible"/>
 </g>
</svg>

<svg xmlns="http://www.w3.org/2000/svg" width="16" height="16">
    <g fill="#050505" color="#000" opacity=".7">
        <path d="M3.994 2c-1.258.015-2.179-.03-2.931.385a1.88 1.88 0 0 0-.838.998C.06 3.82 0 4.343 0 5v6c0 .658.06 1.179.225 1.617.164.439.461.79.838.998.752.416 1.673.37 2.931.385h8.012c1.258-.015 2.179.03 2.932-.385a1.88 1.88 0 0 0 .838-.998c.164-.438.224-.96.224-1.617V5c0-.658-.06-1.179-.225-1.617a1.88 1.88 0 0 0-.837-.998c-.753-.416-1.674-.37-2.932-.385H9.5v1H12c1.259.015 2.09.06 2.455.262.184.1.287.212.385.472.097.26.16.674.16 1.266v6c0 .592-.063 1.006-.16 1.266-.098.26-.201.371-.385.472-.366.202-1.196.247-2.455.262H4c-1.258-.015-2.087-.06-2.453-.262-.183-.1-.29-.212-.387-.472S1 11.592 1 11V5c0-.592.063-1.006.16-1.266.098-.26.204-.371.387-.472C1.913 3.06 2.742 3.015 4 3h1V2H3.998z" font-family="sans-serif" font-weight="400" overflow="visible" style="font-feature-settings:normal;font-variant-alternates:normal;font-variant-caps:normal;font-variant-ligatures:normal;font-variant-numeric:normal;font-variant-position:normal;isolation:auto;mix-blend-mode:normal;shape-padding:0;text-decoration-color:#000;text-decoration-line:none;text-decoration-style:solid;text-indent:0;text-orientation:mixed;text-transform:none"/>
        <path d="m11 0-.001 5a36.973 36.973 0 0 1-2.323-1.166A44.09 44.09 0 0 1 6.417 2.5a51.555 51.555 0 0 1 2.26-1.32A42.09 42.09 0 0 1 11 0Z" overflow="visible"/>
    </g>
</svg>
